X: 645
T: Hai tai
L: 1/16
M: 2/4
K: G
d2 d2 e g e d [I:setbarnb 1]| 
A B A GA4 | 
G2 G2 A G F E | 
D E D A,D4 | 
G2 G2 A G F E | 
D2 d2 A2 B A | 
E2 D2 G G G A | 
E D C2D4 |]

@@@ Tune index: 9519
